X:189
T:Ranger's Frolick THO1.189
T:Whip Her and Gird Her,aka THO1.189
M:6/4
L:1/4
Z:vmp. Peter Dunk 2012.from a transcription by Fynn Titford-Mock 2006
B:Thompson's Compleat Collection of 200 Favourite Country Dances Vol.I,1758
Q:3/4=120
K:G
G2 G G2 d|BGB Tc2 B|G2 G G2 (3B/c/d/|AFA Tc2 A|\
G2 G G2 (3B/c/d/|BGB g2 d|ecedBd|AFA Tc2 A:|
|:g3/ f/ gdef|g3/ f/ gd3/ c/ B|g3/ f/ gdef|AFA c2 A|\
g3/ f/ gdef|g3/ f/ gd3/ c/ B|(c/d/)ec(d/e/)fd|AFA c2 A:|
|:BGGADD|BGGcBA|BGGADD|AFA c2 A|BGGADD|\
g3/ f/ gdcB|(c/d/)ec(d/e/)fd|AFA c2 A:|

